icons/githubpages-light.svg

<svg width="256" height="256" viewBox="0 0 256 256" fill="none" xmlns="http://www.w3.org/2000/svg">
<path d="M196 0H60C26.8629 0 0 26.8629 0 60V196C0 229.137 26.8629 256 60 256H196C229.137 256 256 229.137 256 196V60C256 26.8629 229.137 0 196 0Z" fill="#F4F2ED"/>
<g clip-path="url(#clip0_0_1)">
<path fill-rule="evenodd" clip-rule="evenodd" d="M127.266 16C83.987 16 49 51.0625 49 94.4396C49 129.113 71.4174 158.464 102.516 168.852C106.404 169.633 107.829 167.164 107.829 165.087C107.829 163.269 107.7 157.036 107.7 150.541C85.9286 155.217 81.3949 141.191 81.3949 141.191C77.896 132.1 72.7118 129.763 72.7118 129.763C65.5859 124.958 73.2309 124.958 73.2309 124.958C81.1353 125.478 85.283 133.01 85.283 133.01C92.2791 144.957 103.553 141.581 108.088 139.503C108.735 134.438 110.81 130.932 113.013 128.984C95.6482 127.166 77.3786 120.413 77.3786 90.2831C77.3786 81.7119 80.4865 74.6994 85.4112 69.2456C84.6342 67.298 81.9123 59.2448 86.1898 48.4663C86.1898 48.4663 92.7982 46.388 107.699 56.5179C114.078 54.8009 120.657 53.9274 127.266 53.9201C133.875 53.9201 140.611 54.8301 146.832 56.5179C161.734 46.388 168.342 48.4663 168.342 48.4663C172.62 59.2448 169.896 67.298 169.119 69.2456C174.174 74.6994 177.154 81.7119 177.154 90.2831C177.154 120.413 158.884 127.035 141.39 128.984C144.241 131.451 146.702 136.126 146.702 143.529C146.702 154.047 146.574 162.49 146.574 165.086C146.574 167.164 148 169.633 151.886 168.853C182.985 158.462 205.402 129.113 205.402 94.4396C205.531 51.0625 170.415 16 127.266 16Z" fill="#24292F"/>
</g>
<path d="M48.7234 208.309C48.6026 207.862 48.4251 207.467 48.1907 207.126C47.9563 206.778 47.6687 206.484 47.3278 206.242C46.9869 206.001 46.5962 205.82 46.1559 205.699C45.7156 205.571 45.2326 205.507 44.707 205.507C43.6488 205.507 42.7326 205.763 41.9585 206.274C41.1914 206.786 40.5984 207.531 40.1793 208.511C39.7603 209.484 39.5508 210.667 39.5508 212.059C39.5508 213.458 39.7532 214.651 40.158 215.638C40.5629 216.626 41.1488 217.379 41.9158 217.897C42.6829 218.415 43.6133 218.675 44.707 218.675C45.6729 218.675 46.4897 218.518 47.1573 218.206C47.832 217.886 48.3434 217.435 48.6914 216.853C49.0394 216.271 49.2134 215.585 49.2134 214.797L50.1935 214.914H44.8881V211.068H54.2951V213.955C54.2951 215.908 53.8796 217.581 53.0487 218.973C52.2248 220.365 51.0884 221.434 49.6396 222.18C48.1978 222.925 46.5394 223.298 44.6644 223.298C42.5835 223.298 40.7546 222.847 39.1779 221.945C37.6012 221.043 36.3725 219.758 35.4918 218.089C34.6112 216.413 34.1708 214.424 34.1708 212.123C34.1708 210.333 34.4371 208.746 34.9698 207.361C35.5025 205.969 36.2447 204.79 37.1964 203.824C38.1552 202.858 39.2631 202.126 40.5202 201.629C41.7844 201.132 43.1445 200.884 44.6005 200.884C45.8647 200.884 47.0401 201.065 48.1268 201.427C49.2205 201.789 50.1864 202.3 51.0245 202.961C51.8697 203.621 52.555 204.406 53.0806 205.315C53.6062 206.224 53.9329 207.222 54.0607 208.309H48.7234ZM58.4286 223V206.636H63.6381V223H58.4286ZM61.0387 204.729C60.3072 204.729 59.6786 204.488 59.1531 204.005C58.6275 203.515 58.3647 202.925 58.3647 202.237C58.3647 201.555 58.6275 200.972 59.1531 200.489C59.6786 199.999 60.3072 199.754 61.0387 199.754C61.7773 199.754 62.4059 199.999 62.9244 200.489C63.4499 200.972 63.7127 201.555 63.7127 202.237C63.7127 202.925 63.4499 203.515 62.9244 204.005C62.4059 204.488 61.7773 204.729 61.0387 204.729ZM76.1905 206.636V210.472H65.8674V206.636H76.1905ZM68.03 202.716H73.2395V217.854C73.2395 218.174 73.2892 218.433 73.3887 218.632C73.4952 218.824 73.6479 218.962 73.8468 219.048C74.0456 219.126 74.2836 219.165 74.5605 219.165C74.7594 219.165 74.9689 219.147 75.1891 219.112C75.4164 219.069 75.5868 219.033 75.7005 219.005L76.4888 222.766C76.2402 222.837 75.8887 222.925 75.4341 223.032C74.9867 223.138 74.4505 223.206 73.8255 223.234C72.6039 223.291 71.5563 223.149 70.6827 222.808C69.8162 222.46 69.1522 221.92 68.6905 221.189C68.236 220.457 68.0158 219.538 68.03 218.43V202.716ZM84.4096 213.668V223H79.2001V201.182H84.2392V209.641H84.4203C84.7896 208.632 85.3933 207.844 86.2314 207.276C87.0765 206.707 88.1099 206.423 89.3315 206.423C90.4821 206.423 91.4835 206.679 92.3358 207.19C93.188 207.695 93.8485 208.408 94.3173 209.332C94.7931 210.255 95.0275 211.335 95.0204 212.57V223H89.8109V213.593C89.818 212.684 89.5907 211.974 89.1291 211.462C88.6674 210.951 88.0176 210.695 87.1795 210.695C86.6326 210.695 86.1497 210.816 85.7306 211.058C85.3187 211.292 84.9956 211.629 84.7612 212.07C84.5339 212.51 84.4167 213.043 84.4096 213.668ZM108.83 215.937V206.636H114.029V223H109.064V219.953H108.894C108.532 220.955 107.914 221.75 107.04 222.339C106.174 222.922 105.126 223.213 103.897 223.213C102.782 223.213 101.802 222.957 100.957 222.446C100.112 221.935 99.4549 221.221 98.9862 220.305C98.5174 219.381 98.2795 218.302 98.2724 217.066V206.636H103.482V216.043C103.489 216.931 103.723 217.631 104.185 218.142C104.647 218.653 105.275 218.909 106.071 218.909C106.589 218.909 107.054 218.795 107.466 218.568C107.885 218.334 108.216 217.996 108.457 217.556C108.706 217.109 108.83 216.569 108.83 215.937ZM117.345 223V201.182H122.554V209.438H122.661C122.874 208.941 123.176 208.462 123.566 208C123.964 207.538 124.468 207.162 125.079 206.871C125.697 206.572 126.436 206.423 127.295 206.423C128.431 206.423 129.493 206.722 130.48 207.318C131.475 207.915 132.277 208.835 132.888 210.077C133.499 211.32 133.804 212.904 133.804 214.829C133.804 216.683 133.509 218.234 132.92 219.484C132.338 220.734 131.549 221.672 130.555 222.297C129.568 222.922 128.47 223.234 127.263 223.234C126.439 223.234 125.725 223.099 125.122 222.83C124.518 222.56 124.01 222.205 123.598 221.764C123.193 221.324 122.881 220.852 122.661 220.347H122.501V223H117.345ZM122.448 214.818C122.448 215.699 122.565 216.466 122.799 217.119C123.041 217.773 123.385 218.281 123.833 218.643C124.287 218.998 124.83 219.175 125.463 219.175C126.102 219.175 126.645 218.998 127.093 218.643C127.54 218.281 127.877 217.773 128.105 217.119C128.339 216.466 128.456 215.699 128.456 214.818C128.456 213.937 128.339 213.174 128.105 212.528C127.877 211.881 127.54 211.381 127.093 211.026C126.652 210.67 126.109 210.493 125.463 210.493C124.823 210.493 124.28 210.667 123.833 211.015C123.385 211.363 123.041 211.86 122.799 212.506C122.565 213.153 122.448 213.923 122.448 214.818ZM137.525 223V201.182H144.897C146.609 201.182 148.008 201.491 149.094 202.109C150.188 202.719 150.998 203.547 151.523 204.591C152.049 205.635 152.312 206.8 152.312 208.085C152.312 209.371 152.049 210.539 151.523 211.59C151.005 212.641 150.202 213.479 149.116 214.104C148.029 214.722 146.637 215.031 144.94 215.031H139.656V212.688H144.854C146.026 212.688 146.967 212.485 147.678 212.08C148.388 211.675 148.903 211.129 149.222 210.44C149.549 209.744 149.712 208.959 149.712 208.085C149.712 207.212 149.549 206.43 149.222 205.741C148.903 205.053 148.384 204.513 147.667 204.122C146.95 203.724 145.998 203.526 144.812 203.526H140.167V223H137.525ZM161.042 223.384C160.005 223.384 159.064 223.188 158.219 222.798C157.374 222.4 156.703 221.828 156.206 221.082C155.708 220.33 155.46 219.42 155.46 218.355C155.46 217.418 155.645 216.658 156.014 216.075C156.383 215.486 156.877 215.024 157.495 214.69C158.113 214.357 158.794 214.108 159.54 213.945C160.293 213.774 161.049 213.639 161.809 213.54C162.804 213.412 163.61 213.316 164.228 213.252C164.853 213.181 165.307 213.064 165.591 212.901C165.882 212.737 166.028 212.453 166.028 212.048V211.963C166.028 210.912 165.74 210.095 165.165 209.513C164.597 208.93 163.734 208.639 162.576 208.639C161.376 208.639 160.435 208.902 159.753 209.428C159.071 209.953 158.592 210.514 158.315 211.111L155.929 210.259C156.355 209.264 156.923 208.49 157.633 207.936C158.35 207.375 159.132 206.984 159.977 206.764C160.829 206.537 161.667 206.423 162.491 206.423C163.017 206.423 163.62 206.487 164.302 206.615C164.991 206.736 165.655 206.988 166.294 207.371C166.941 207.755 167.477 208.334 167.903 209.108C168.329 209.882 168.542 210.919 168.542 212.219V223H166.028V220.784H165.9C165.73 221.139 165.446 221.519 165.048 221.924C164.65 222.329 164.121 222.673 163.461 222.957C162.8 223.241 161.994 223.384 161.042 223.384ZM161.426 221.125C162.42 221.125 163.258 220.93 163.94 220.539C164.629 220.148 165.147 219.644 165.495 219.026C165.85 218.408 166.028 217.759 166.028 217.077V214.776C165.922 214.903 165.687 215.021 165.325 215.127C164.97 215.227 164.558 215.315 164.089 215.393C163.627 215.464 163.176 215.528 162.736 215.585C162.303 215.635 161.951 215.678 161.681 215.713C161.028 215.798 160.417 215.937 159.849 216.129C159.288 216.313 158.833 216.594 158.485 216.97C158.145 217.339 157.974 217.844 157.974 218.483C157.974 219.357 158.297 220.017 158.944 220.464C159.597 220.905 160.424 221.125 161.426 221.125ZM179.736 229.477C178.522 229.477 177.478 229.321 176.604 229.009C175.731 228.703 175.003 228.298 174.42 227.794C173.845 227.297 173.387 226.764 173.046 226.196L175.049 224.79C175.276 225.088 175.564 225.429 175.912 225.812C176.26 226.203 176.736 226.54 177.339 226.825C177.95 227.116 178.749 227.261 179.736 227.261C181.057 227.261 182.148 226.942 183.007 226.303C183.866 225.663 184.296 224.662 184.296 223.298V219.974H184.083C183.898 220.273 183.635 220.642 183.295 221.082C182.961 221.516 182.478 221.903 181.846 222.244C181.221 222.577 180.376 222.744 179.31 222.744C177.989 222.744 176.803 222.432 175.752 221.807C174.708 221.182 173.881 220.273 173.27 219.08C172.666 217.886 172.364 216.437 172.364 214.733C172.364 213.057 172.659 211.597 173.248 210.354C173.838 209.104 174.658 208.138 175.709 207.457C176.76 206.768 177.975 206.423 179.353 206.423C180.418 206.423 181.263 206.601 181.888 206.956C182.52 207.304 183.003 207.702 183.337 208.149C183.678 208.589 183.941 208.952 184.126 209.236H184.381V206.636H186.81V223.469C186.81 224.875 186.491 226.018 185.851 226.899C185.219 227.787 184.367 228.437 183.295 228.849C182.229 229.268 181.043 229.477 179.736 229.477ZM179.651 220.486C180.66 220.486 181.512 220.255 182.208 219.793C182.904 219.332 183.433 218.668 183.795 217.801C184.157 216.935 184.339 215.898 184.339 214.69C184.339 213.511 184.161 212.471 183.806 211.569C183.451 210.667 182.925 209.96 182.229 209.449C181.533 208.937 180.674 208.682 179.651 208.682C178.586 208.682 177.698 208.952 176.988 209.491C176.285 210.031 175.756 210.756 175.4 211.665C175.052 212.574 174.878 213.582 174.878 214.69C174.878 215.827 175.056 216.832 175.411 217.705C175.773 218.572 176.306 219.254 177.009 219.751C177.719 220.241 178.6 220.486 179.651 220.486ZM198.273 223.341C196.697 223.341 195.336 222.993 194.193 222.297C193.057 221.594 192.18 220.614 191.562 219.357C190.951 218.092 190.645 216.622 190.645 214.946C190.645 213.27 190.951 211.793 191.562 210.514C192.18 209.229 193.039 208.227 194.14 207.51C195.248 206.786 196.54 206.423 198.018 206.423C198.87 206.423 199.711 206.565 200.542 206.849C201.373 207.134 202.13 207.595 202.812 208.234C203.493 208.866 204.037 209.705 204.442 210.749C204.846 211.793 205.049 213.078 205.049 214.605V215.67H192.435V213.497H202.492C202.492 212.574 202.307 211.75 201.938 211.026C201.576 210.301 201.057 209.729 200.383 209.31C199.715 208.891 198.927 208.682 198.018 208.682C197.016 208.682 196.15 208.93 195.418 209.428C194.694 209.918 194.136 210.557 193.746 211.345C193.355 212.134 193.16 212.979 193.16 213.881V215.33C193.16 216.565 193.373 217.613 193.799 218.472C194.232 219.325 194.832 219.974 195.599 220.422C196.366 220.862 197.258 221.082 198.273 221.082C198.934 221.082 199.53 220.99 200.063 220.805C200.603 220.614 201.068 220.33 201.459 219.953C201.849 219.57 202.151 219.094 202.364 218.526L204.793 219.207C204.537 220.031 204.108 220.756 203.504 221.381C202.9 221.999 202.155 222.482 201.267 222.83C200.379 223.17 199.381 223.341 198.273 223.341ZM220.464 210.301L218.206 210.94C218.064 210.564 217.854 210.198 217.577 209.843C217.307 209.481 216.938 209.183 216.469 208.948C216.001 208.714 215.4 208.597 214.669 208.597C213.667 208.597 212.833 208.827 212.165 209.289C211.505 209.744 211.175 210.322 211.175 211.026C211.175 211.651 211.402 212.144 211.856 212.506C212.311 212.869 213.021 213.17 213.987 213.412L216.416 214.009C217.879 214.364 218.969 214.907 219.687 215.638C220.404 216.363 220.763 217.297 220.763 218.44C220.763 219.378 220.493 220.216 219.953 220.955C219.42 221.693 218.675 222.276 217.716 222.702C216.757 223.128 215.642 223.341 214.371 223.341C212.702 223.341 211.32 222.979 210.226 222.254C209.133 221.53 208.44 220.472 208.149 219.08L210.535 218.483C210.763 219.364 211.192 220.024 211.824 220.464C212.464 220.905 213.298 221.125 214.328 221.125C215.5 221.125 216.43 220.876 217.119 220.379C217.815 219.875 218.163 219.271 218.163 218.568C218.163 218 217.964 217.524 217.567 217.141C217.169 216.75 216.558 216.459 215.734 216.267L213.007 215.628C211.508 215.273 210.407 214.722 209.704 213.977C209.008 213.224 208.66 212.283 208.66 211.153C208.66 210.23 208.92 209.413 209.438 208.703C209.964 207.993 210.677 207.435 211.579 207.031C212.488 206.626 213.518 206.423 214.669 206.423C216.288 206.423 217.559 206.778 218.483 207.489C219.413 208.199 220.074 209.136 220.464 210.301Z" fill="#24292F"/>
<defs>
<clipPath id="clip0_0_1">
<rect width="157" height="153" fill="white" transform="translate(49 16)"/>
</clipPath>
</defs>
</svg>

<svg xmlns="http://www.w3.org/2000/svg" width="256" height="256" fill="none"><path fill="#F4F2ED" d="M196 0H60C26.863 0 0 26.863 0 60v136c0 33.137 26.863 60 60 60h136c33.137 0 60-26.863 60-60V60c0-33.137-26.863-60-60-60"/><g clip-path="url(#clip0_0_1)"><path fill="#24292F" fill-rule="evenodd" d="M127.266 16C83.987 16 49 51.063 49 94.44c0 34.673 22.417 64.024 53.516 74.412 3.888.781 5.313-1.688 5.313-3.765 0-1.818-.129-8.051-.129-14.546-21.771 4.676-26.305-9.35-26.305-9.35-3.499-9.091-8.683-11.428-8.683-11.428-7.126-4.805.519-4.805.519-4.805 7.904.52 12.052 8.052 12.052 8.052 6.996 11.947 18.27 8.571 22.805 6.493.647-5.065 2.722-8.571 4.925-10.519-17.365-1.818-35.634-8.571-35.634-38.7 0-8.572 3.108-15.585 8.032-21.038-.777-1.948-3.499-10.001.779-20.78 0 0 6.608-2.078 21.509 8.052a75.6 75.6 0 0 1 19.567-2.598c6.609 0 13.345.91 19.566 2.598 14.902-10.13 21.51-8.052 21.51-8.052 4.278 10.779 1.554 18.832.777 20.78 5.055 5.453 8.035 12.466 8.035 21.037 0 30.13-18.27 36.752-35.764 38.701 2.851 2.467 5.312 7.142 5.312 14.545 0 10.518-.128 18.961-.128 21.557 0 2.078 1.426 4.547 5.312 3.767 31.099-10.391 53.516-39.74 53.516-74.413.129-43.377-34.987-78.44-78.136-78.44" clip-rule="evenodd"/></g><path fill="#24292F" d="M48.723 208.309a3.8 3.8 0 0 0-.532-1.183 3.4 3.4 0 0 0-.863-.884 3.7 3.7 0 0 0-1.172-.543 5.2 5.2 0 0 0-1.449-.192q-1.587 0-2.748.767-1.151.768-1.78 2.237-.628 1.46-.628 3.548 0 2.099.607 3.579.607 1.482 1.758 2.259 1.15.778 2.791.778 1.45 0 2.45-.469 1.012-.48 1.534-1.353t.522-2.056l.98.117h-5.305v-3.846h9.407v2.887q0 2.93-1.246 5.018a8.3 8.3 0 0 1-3.41 3.207q-2.162 1.118-4.975 1.118-3.121 0-5.486-1.353t-3.686-3.856q-1.32-2.514-1.321-5.966 0-2.685.799-4.762.799-2.088 2.226-3.537a9.6 9.6 0 0 1 3.324-2.195q1.896-.745 4.08-.745 1.897 0 3.527.543a9.4 9.4 0 0 1 2.898 1.534 8.1 8.1 0 0 1 2.056 2.354q.788 1.364.98 2.994zM58.43 223v-16.364h5.21V223zm2.61-18.271a2.7 2.7 0 0 1-1.886-.724q-.788-.736-.788-1.768 0-1.023.788-1.748a2.67 2.67 0 0 1 1.886-.735q1.107 0 1.885.735.789.725.789 1.748 0 1.032-.789 1.768-.777.724-1.885.724m15.151 1.907v3.836H65.868v-3.836zm-8.16-3.92h5.21v15.138q0 .48.149.778.16.288.458.416.299.117.714.117.297 0 .628-.053.34-.065.512-.107l.788 3.761q-.373.106-1.055.266a9 9 0 0 1-1.608.202q-1.833.085-3.143-.426-1.3-.522-1.993-1.619-.681-1.097-.66-2.759zm16.38 10.952V223H79.2v-21.818h5.04v8.459h.18q.554-1.513 1.811-2.365 1.269-.853 3.1-.853 1.727 0 3.005.767 1.279.757 1.981 2.142.714 1.385.703 3.238V223h-5.21v-9.407q.011-1.363-.68-2.131-.694-.767-1.95-.767-.82 0-1.45.363a2.46 2.46 0 0 0-.969 1.012q-.34.66-.351 1.598m24.42 2.269v-9.301h5.199V223h-4.965v-3.047h-.17a4.75 4.75 0 0 1-1.854 2.386q-1.3.874-3.143.874-1.672 0-2.94-.767a5.2 5.2 0 0 1-1.97-2.141q-.704-1.385-.715-3.239v-10.43h5.21v9.407q.01 1.332.703 2.099t1.886.767q.777 0 1.395-.341.629-.352.991-1.012.373-.67.373-1.619m8.515 7.063v-21.818h5.209v8.256h.107a5.7 5.7 0 0 1 .905-1.438 4.5 4.5 0 0 1 1.513-1.129q.927-.448 2.216-.448 1.704 0 3.185.895 1.492.896 2.408 2.759.916 1.865.916 4.752 0 2.78-.884 4.655-.873 1.875-2.365 2.813-1.481.937-3.292.937-1.236 0-2.141-.404a4.7 4.7 0 0 1-1.524-1.066 5.1 5.1 0 0 1-.937-1.417h-.16V223zm5.103-8.182q0 1.321.351 2.301.363.981 1.034 1.524.68.532 1.63.532.958 0 1.63-.532.67-.543 1.012-1.524.351-.98.351-2.301t-.351-2.29q-.342-.97-1.012-1.502-.661-.534-1.63-.533-.96 0-1.63.522-.671.522-1.034 1.491-.351.97-.351 2.312M137.525 223v-21.818h7.372q2.568 0 4.197.927 1.641.915 2.429 2.482.789 1.566.789 3.494t-.789 3.505q-.778 1.576-2.407 2.514-1.63.927-4.176.927h-5.284v-2.343h5.198q1.758 0 2.824-.608 1.065-.607 1.544-1.64.49-1.044.49-2.355t-.49-2.344q-.479-1.032-1.555-1.619-1.076-.597-2.855-.596h-4.645V223zm23.517.384q-1.556 0-2.823-.586a4.85 4.85 0 0 1-2.013-1.716q-.746-1.129-.746-2.727 0-1.406.554-2.28a3.9 3.9 0 0 1 1.481-1.385 7.8 7.8 0 0 1 2.045-.745 25 25 0 0 1 2.269-.405 103 103 0 0 1 2.419-.288q.937-.107 1.363-.351.437-.246.437-.853v-.085q0-1.577-.863-2.45-.852-.874-2.589-.874-1.8 0-2.823.789-1.023.788-1.438 1.683l-2.386-.852q.639-1.492 1.704-2.323a6.4 6.4 0 0 1 2.344-1.172 9.7 9.7 0 0 1 2.514-.341q.788 0 1.811.192a5.8 5.8 0 0 1 1.992.756q.97.576 1.609 1.737t.639 3.111V223h-2.514v-2.216h-.128q-.255.532-.852 1.14t-1.587 1.033q-.991.426-2.419.427m.384-2.259q1.491 0 2.514-.586 1.033-.586 1.555-1.513a3.85 3.85 0 0 0 .533-1.949v-2.301q-.16.191-.703.351-.532.15-1.236.266a58 58 0 0 1-1.353.192q-.65.075-1.055.128a9.6 9.6 0 0 0-1.832.416q-.842.276-1.364.841-.51.554-.511 1.513 0 1.31.97 1.981.98.661 2.482.661m18.31 8.352q-1.821 0-3.132-.468-1.31-.459-2.184-1.215a6.7 6.7 0 0 1-1.374-1.598l2.003-1.406q.34.447.863 1.022.522.586 1.427 1.013.916.436 2.397.436 1.982 0 3.271-.958 1.289-.96 1.289-3.005v-3.324h-.213a14 14 0 0 1-.788 1.108q-.501.65-1.449 1.162-.937.5-2.536.5-1.982 0-3.558-.937-1.566-.938-2.482-2.727-.906-1.791-.906-4.347 0-2.514.884-4.379.885-1.875 2.461-2.897 1.577-1.034 3.644-1.034 1.597 0 2.535.533.948.522 1.449 1.193.512.66.789 1.087h.255v-2.6h2.429v16.833q0 2.109-.959 3.43-.948 1.332-2.556 1.95-1.599.628-3.559.628m-.085-8.991q1.513 0 2.557-.693 1.044-.692 1.587-1.992.544-1.299.544-3.111 0-1.768-.533-3.121t-1.577-2.12-2.578-.767q-1.598 0-2.663.809-1.054.81-1.588 2.174-.522 1.363-.522 3.025 0 1.706.533 3.015.543 1.3 1.598 2.046 1.065.735 2.642.735m18.622 2.855q-2.365 0-4.08-1.044-1.704-1.055-2.631-2.94-.917-1.897-.917-4.411t.917-4.432q.927-1.928 2.578-3.004 1.661-1.087 3.878-1.087 1.278 0 2.524.426a6.3 6.3 0 0 1 2.27 1.385q1.022.948 1.63 2.515.607 1.566.607 3.856v1.065h-12.614v-2.173h10.057q0-1.385-.554-2.471a4.2 4.2 0 0 0-1.555-1.716q-1.002-.628-2.365-.628-1.502 0-2.6.746a4.9 4.9 0 0 0-1.672 1.917 5.6 5.6 0 0 0-.586 2.536v1.449q0 1.853.639 3.142.65 1.279 1.8 1.95 1.151.66 2.674.66.991 0 1.79-.277a3.8 3.8 0 0 0 1.396-.852q.585-.575.905-1.427l2.429.681a5.4 5.4 0 0 1-1.289 2.174q-.905.927-2.237 1.449-1.332.51-2.994.511m22.191-13.04-2.258.639a4.2 4.2 0 0 0-.629-1.097q-.405-.543-1.108-.895-.703-.351-1.8-.351-1.503 0-2.504.692-.99.682-.99 1.737 0 .937.681 1.48.682.544 2.131.906l2.429.597q2.194.532 3.271 1.629 1.076 1.087 1.076 2.802 0 1.407-.81 2.515-.799 1.107-2.237 1.747-1.439.639-3.345.639-2.504 0-4.145-1.087t-2.077-3.174l2.386-.597q.342 1.321 1.289 1.981.96.661 2.504.661 1.758 0 2.791-.746 1.044-.756 1.044-1.811 0-.852-.596-1.427-.597-.586-1.833-.874l-2.727-.639q-2.249-.533-3.303-1.651-1.044-1.13-1.044-2.824 0-1.385.778-2.45.789-1.065 2.141-1.672 1.363-.608 3.09-.608 2.428 0 3.814 1.066 1.395 1.065 1.981 2.812"/><defs><clipPath id="clip0_0_1"><path fill="#fff" d="M49 16h157v153H49z"/></clipPath></defs></svg>
